X:1
T:Svētās ANNAS dziesma
T:Poļu melodija Harm. Andris Solims
T:Svētās ANNAS dziesma
C:Poļu melodija
C:Harm. Andris Solims
Z:Andris Solims
%%score { ( 1 2 ) ( 3 4 ) }
L:1/8
M:3/4
K:A
V:1 treble nm="P1"
V:2 treble 
V:3 bass nm="P2"
V:4 bass 
V:1
!mf!"^Allegro Moderato" EF E2!<(! D2 | CE!<)! Ac e2 | dd!>(! c2 B2!>)! | A4 z2 |!mf! EF E2 D2 | %5
w: 3. tā An- na,|tu pie Die- * va|e- si tu- vu-|mā,|3. lūdz vi- siem|
w: Kun- ga Jē- zus|Mā- tes mā- * te,|te- vi svei- ci-|nām.|1. žu Aiz- bil-|
w: Ta- vus brī- nu-|mus ir daudz- * viet|ie- pa- zi- nu-|ši,|2. par ta- vām|
!<(! CE A!<)!c e2 | dd!>(! c2 B2!>)! | A4 z2 |!mp! Bc B2 A2 | GF E2 z2 |!p! Bc B2 A2 | %11
w: sa- nā- ku- * šiem|ša- jā diev- na-|mā|3. zus Sirds vis-|mī- * ļā-|žēl- sir- dī- bas|
w: dne pie Die- * va-|te- vi go- di-|nām.|1. pie te- vis|stei- * dza-|va- ja- dzī- bās|
w: žē- las- tī- * bām|lie- ci- nā- ju-|ši.|2. vien te- vi|pie- * sauk-|pa- lī- dzī- bu|
!>(! GF E2!>)! z2 |!mf! EF E2 D2 |!<(! CE A!<)!c e2 |"^rit."!f! d2"^rit." cc B2 | !fermata!A4 z2 |] %16
w: dā- va- nas.|3. lai Ma- ri-|ja mums pa- * līdz,-|ak, svē- tā An-|na.|
w: lū- dza- mies|1. gūt ta- vu|lab- vē- lī- * bu,|ak, svē- tā An-|na.|
w: sa- ņem- tu,|2. vas lūg'- snas|gan- da- rī- * tu,|ak, svē- tā An-|na.|
V:2
 CD C2 B,2 | A,C F2 G2 | AB A2 G2 | E4 z2 | CD C2 B,2 | A,B, CF ^A2 | FF E2 D2 | C4 z2 | EE E2 F2 | %9
 E^D E2 z2 | GA G2 F2 | E^D C2 z2 | CD C2 B,2 | A,[B,D] CA G2 | A2 AA G2 | E4 z2 |] %16
V:3
 A,A, G,2 G,2 | A,A, A,2 B,2 | DE E2 D2 | C4 z2 | A,A, A,2 G,2 | A,G, F,A, C2 | B,A, G,2 F,G, | %7
 [E,A,]4 z2 | G,A, G,2 B,2 | B,A, G,2 z2 | E^D C2 CD | C^B, G,2 z2 | A,G, A,G, F,G, | %13
 F,G, A,^D E2 | F2 EE D2 | C4 z2 |] %16
V:4
 A,,A,, E,2 ^E,2 | F,E, D,^D, E,2 | F,G, A,2 E,2 | A,4 z2 | A,,A,, A,,2 B,,2 | C,C, F,2 F,2 | %6
 B,,B,, E,2 E,2 | A,,4 z2 | E,E, E,2 ^D,2 | B,,B,, E,2 x2 | E,E, E,^E, F,2 | G,G, C,2 x2 | %12
 A,,A,, A,,2 B,,2 | C,E, A,F, E,2 | B,,2 E,E, E,2 | !fermata![A,,A,]4 z2 |] %16

